www/assets/icons/format_textdirection_l_to_r.svg

<svg xmlns="http://www.w3.org/2000/svg" width="24" height="24" viewBox="0 0 24 24" fill='currentColor'><path d="M8 10v5h2V4h2v11h2V4h2V2H8C5.79 2 4 3.79 4 6s1.79 4 4 4m12 8-4-4v3H4v2h12v3z"/></svg>

<svg width="24" height="24" viewBox="0 0 24 24" xmlns="http://www.w3.org/2000/svg" fill='currentColor'><path d="M8 10V15H10V4H12V15H14V4H16V2H8C5.79 2 4 3.79 4 6C4 8.21 5.79 10 8 10ZM20 18L16 14V17H4V19H16V22L20 18Z"/></svg>
